X: 23
T: Musical Priest, The
Z: Nadeau
S: https://thesession.org/tunes/73#setting52964
R: reel
M: 4/4
L: 1/8
K: Bmin
|:BA|"Bm"FB ~B2 BABd|"A"cBAf ecBA|"Bm"FB ~B2 BABd|"A"cBAc "Bm"B2:|
|:Bc|"D"d2 dc dfed|"A"(3(cBA) eA fA eA|"Bm"dcBc "D"defb|"A"afec "Bm"B2:|
|:Bc|"Bm"dB ~B2 bafb|"A"afec ABce|"Bm"dB ~B2 bafb|"A"afec "Bm"B2 Bc:|

